icons/arrow-small-right.svg

<svg xmlns="http://www.w3.org/2000/svg" width="24" height="24" viewBox="0 0 24 24">
  <path d="M12.9560452,5.55285036 L13.0502525,5.63603897 L18.7071068,11.2928932 C18.7341207,11.3199072 18.7595963,11.3484595 18.7833908,11.3784075 L18.7071068,11.2928932 C18.7465715,11.332358 18.7820481,11.3743006 18.8135366,11.4182204 C18.8274737,11.4377852 18.8410808,11.4583066 18.8539326,11.4793398 C18.8622728,11.4928304 18.8701389,11.5064305 18.8776583,11.5201698 C18.8868931,11.5371537 18.8959557,11.5549095 18.9044938,11.5729619 C18.9140881,11.5932325 18.9226898,11.613165 18.930613,11.6333026 C18.9375547,11.6508514 18.9440997,11.6689468 18.9501291,11.6872762 C18.9551048,11.7025958 18.9598259,11.7182588 18.9641549,11.734007 C18.9701664,11.7555635 18.9753602,11.7772539 18.9798348,11.7992059 C18.9832978,11.8166247 18.9863719,11.834051 18.9889822,11.8515331 C18.9920941,11.8718856 18.994564,11.8929426 18.9963697,11.914189 C18.9978612,11.9321496 18.9988858,11.9495547 18.9994578,11.9669718 C18.9998151,11.9775981 19,11.9887775 19,12 L18.9994578,12.0330282 C18.9988882,12.0503712 18.9978699,12.0677023 18.9964029,12.0850024 L19,12 C19,12.0506203 18.9962388,12.1003621 18.9889807,12.1489612 C18.9863441,12.1661068 18.9832818,12.1834538 18.9797599,12.2007258 C18.9753602,12.2227461 18.9701664,12.2444365 18.964279,12.2658396 C18.9599023,12.2814633 18.9552713,12.2968513 18.9502619,12.3121425 C18.9438775,12.3317977 18.9366843,12.3515792 18.928896,12.3710585 C18.9218036,12.3887956 18.914321,12.4060985 18.9063266,12.4232215 C18.897529,12.4419547 18.8881407,12.4604898 18.8782035,12.4786822 C18.8701866,12.4935488 18.8613648,12.5087703 18.8521085,12.5238 C18.8384932,12.5456983 18.8245831,12.5664533 18.8099369,12.5866395 C18.8037205,12.5953343 18.7970905,12.6041603 18.7902954,12.6128994 C18.7848777,12.6197272 18.7826022,12.6225945 18.7803112,12.625449 L18.7071068,12.7071068 L13.0502525,18.363961 C12.6597282,18.7544853 12.0265633,18.7544853 11.636039,18.363961 C11.275555,18.0034771 11.2478255,17.436246 11.5528504,17.0439548 L11.636039,16.9497475 L15.585,12.9991458 L6,13 C5.44771525,13 5,12.5522847 5,12 C5,11.4871642 5.38604019,11.0644928 5.88337887,11.0067277 L6,11 L15.585,10.9991458 L11.636039,7.05025253 C11.2455147,6.65972824 11.2455147,6.02656326 11.636039,5.63603897 C11.9965229,5.27555501 12.563754,5.24782547 12.9560452,5.55285036 Z"/>
</svg>

<svg xmlns="http://www.w3.org/2000/svg" viewBox="0 0 24 24">
  <path d="m12.96 5.55.09.09 5.66 5.65a1 1 0 0 1 .07.09l-.07-.09A1 1 0 0 1 19 12v.03a1 1 0 0 1 0 .06V12a1 1 0 0 1-.22.63l-.07.08-5.66 5.65a1 1 0 0 1-1.5-1.32l.09-.09L15.59 13H6a1 1 0 0 1-.12-2h9.72l-3.95-3.95a1 1 0 0 1 1.32-1.5z"/>
</svg>
